X:1
T:Ung coup dessay
T:Clément Janequin
T:Source : Tiers livre contenant 21 chansons à 4, eslevées de plusieurs livres---Paris---P.Attaignant---1536. Editor : André Vierendeels (29/04/18) Notes : Original clefs : C1, C3, C3, F3 Original note values have been halved Original note values have been quartered in 3-beat measures Editorial accidentals above the staff Dotted brackets indicate black notes
T:Ung coup dessay
T:©
T:©
T:©
C:Clément Janequin
Z:©
%%score [ 1 [ 2 3 4 ] ]
L:1/8
Q:1/4=120
M:2/2
K:F
V:1 treble nm="Soprano" snm="S"
V:2 treble-8 nm="Tenor 1" snm="T 1"
V:3 treble-8 nm="Tenor 2" snm="T 2"
V:4 treble-8 nm="Tenor 3" snm="T 3"
V:1
 z8 | D2 A4 G2 | A3 B c2 c2 | G2 B2 A2 AA | G2 G2 D2 F2 | E4 DEFG | AB c4 G2 | B3 A G2 F2 | %8
w: |Ung coup des-|say pre- mier que|bail- ler gai- ge, ung|coup des- say que|bail- ler _ _ _|_ _ _ _||
 E4 D4- | D4 z2 d2 | d2 c2 d2 D2 | G3 G F2 E2 | D2 A2 B2 B2 | A2 z2 z2 A2 | B3 B A2 G2 | %15
w: gai- ge,|_ ne|se par- tir sans|a- voir tri- po-|té, ne se par-|tir sans|a- voir tri- po-|
 F2 B2 B2 A2 |[M:3/4] B4 B2 | BB B2 d2 |[M:2/2] cB B4 A2 | B8 | z2 d2 d2 d2 | AGAB c2 G2 | %22
w: té, cest le droict|ieu, puis|choi- sir des plus|sai- * * *|ges,|tant qu'il y|ayt, _ _ _ _ tant|
 G2 G2 D3 E | FGAB c3 B/A/ | G2 cB AG B2 | A2 G2 G2 F2 | G3 A Bc d2- | d2 d2 d2 d2 | AGAB c2 G2 | %29
w: qu'il y ayt _|_ _ _ _ _ _ _|* au _ _ _ _|moins e- qua- li-|té, _ _ _ _|_ tant qu'il y|ayt, _ _ _ _ tant|
 G2 G2 D3 E | FGAB c3 B/A/ | G2 cB AG B2 | A2 G2 G2 F2 | G8 |] %34
w: qu'il y ayt _|_ _ _ _ _ _ _|* au _ _ _ _|moins e- qua- li-|té.|
V:2
 z4 G2 d2- | d2 c2 d3 e | f2 f2 cd e2- | ed g4 f2 | g4 G2 d2- | d2 c2 d3 e | f2 A2 c2 c2 | %7
w: Ung coup|_ des- say pre-|mier que bail- ler gai-||ge, ung coup|_ des- say pre-|mier que bail- ler|
 GFGA B4 |"^#" G2 g2 g2 f2 | g2 d2 g3 g | f2 e2 defg | e2 d2 z2 e2 | ffff d4 | z2 g2 f3 e | %14
w: gai- * * * *|ge, ne se par-|tir sans a- voir|tri- po- * * * *|* té, sans|a- voir tri- po- té,|ne se par-|
 d2 B2 cccc | d2 f2 f2 f2 |[M:3/4] d4 f2 | f4 f2 |[M:2/2] g2 e2 f4 | d2 d2 d2 d2 | Bcde f2 f2 | %21
w: tir sans a- voir tri- po-|té, c'est le droict|ieu, puis|choi- sir|des plus sai-|ges, tant qu'il y|ayt, _ _ _ _ tant|
 f2 f2 _e3 d/c/ | BA B4 z2 | f2 f2 f2 e2- | ed cB A2 f2 |"^b" e2 c2 d2 d2 | d3 d d2 d2 | %27
w: qu'il y ayt, _ _|_ _ _|tant qu'il y ayt|_ _ _ _ _ au|moins e- qua- li-|té, tant qu'il y|
 Bcde f2 f2 | f2 f2 _e3 d/c/ | BA B4 z2 | f2 f2 f2 e2- | ed cB A2 f2 |"^b" e2 c2 d2 d2 | d8 |] %34
w: ayt _ _ _ _ tant|qu'il y ayt _ _|_ _ _|tant qu'il y ayt|_ _ _ _ _ au|moins e- qua- li-|té.|
V:3
 z8 | z8 | z4 F2 c2- | c2 B2 c2 d2 | e3 d/c/ B2 z2 | G2 c4 B2 |"^b" c3 d e3 d/c/ | B4 d4 | %8
w: ||Ung coup|_ des- say, _|_ _ _ _|ung coup des-|say pre- mier _ _|_ que|
 c3 B A4 | G3 d c2 B2 | A4 z4 | z2 d2 d2 c2 | d2 D2 G3 G | F2 E2 D4 | z8 | z2 d2 c2 c2 | %16
w: bail- ler gai-|ge, ne se par-|tir,|ne se par-|tir, sans a- voir|tri- po- té,||c'est le droict|
[M:3/4] B4 d2 | dd d2 d2 |[M:2/2] _edcB c4 | B3 A GABc | d8 | z2 c2 c2 c2 | G4 z2 d2 | d2 d2 AGAB | %24
w: ieu, puis|choi- sir des plus|sai- * * * *||ges,|tant qu'il y|ayt, tant|qu'il y ayt _ _ _|
 c2 F2 c2 d2 | cBAG A2 A2 | G3 F GABc | d8 | z2 c2 c2 c2 | G4 z2 d2 | d2 d2 AGAB | c2 F2 c2 d2 | %32
w: _ au moins e-|qua- * * * * li-|té, _ _ _ _ _|_|tant qu'il y|ayt, tant|qu'il y ayt _ _ _|_ au moins e-|
 cBAG A2 A2 | G8 |] %34
w: qua- * * * * li-|té|
V:4
 D2 G4 F2 | G2 A2 B2 B2 | F3 G A4 | G4 z4 | C2 G4 F2 | G2 A2 B3 A/G/ | F4 C2 _E2- | ED/C/ B,4 B,2 | %8
w: Ung coup des-|say pre- mier que|bail- ler gai-|ge,|ung coup des-|say que pre- * *|* mier gai-|* * * ge, ne|
 C4 D4 | G,4 z4 | z2 A2 d3 d | c2 B2 A4 | z4 z2 d2 | d2 c2 d2 D2 | G3 G F2 E2 | D2 B,2 F2 F2 | %16
w: se par-|tir,|sans a- voir|tri- po- té,|ne|se par- tir sans|a- voir tri- po-|té, c'est le droict|
[M:3/4] B,4 B2 | B4 B2 |[M:2/2] _E2 G2 F4 | G,4 z2 G2 | G2 G2 D3 E |"^b" F3 E/D/ C2 _E2 | %22
w: ieu, puis|choi- sir|des plus sai-|ges, tant|qu'il y ayt, _|_ _ _ _ tant|
 D2 D2 B,3 C | DEFG AB c2- | cBAG F2 B,2 |"^b" C2 E2 D2 D2 | G4 z2 G2 | G2 G2 D3 E | %28
w: qu'il y ayt _|_ _ _ _ _ _ _|* * * * * au|moins e- qua- li-|té, tant|qu'il y ayt, _|
"^#""^b" F3 E/D/ C2 _E2 | D2 D2 B,3 C | DEFG AB c2- | cBAG F2 B,2 |"^b" C2 E2 D2 D2 | G,8 |] %34
w: _ _ _ _ tant|qu'il y ayt _|_ _ _ _ _ _ _|* * * * * au|moins e- qua- li-|té.|

